!!!!SEGMENT: pl-wtm--r-1505_stefani-jozef-piesn.krn
!!!id: 18xx:2224
!!!COM: Stefani, Józef
!!!OTL: Pieśń
!!!PDT:
!!!SMS-siglum: PL-Wtm
!!!SMS-shelfmark: R 1505
!!!NIFC-rismID: 1001120246
!!!URL-scan: http://repozytorium.nifc.pl/skany/pl-wtm-nut--r1505
!!!ONB-nifc: UWAGA: brak wpisanego tekstu słownego
!!!SMS-variant:
!!!SMS-altvar:
**kern	**kern	**dynam	**kern
*part2	*part2	*part2	*part1
*staff3	*staff2	*	*staff1
*I"Piano	*I"Piano	*	*I"[Śpiew]
*clefF4	*clefG2	*	*clefG2
*k[b-]	*k[b-]	*	*k[b-]
*F:	*F:	*	*F:
*M3/4	*M3/4	*	*M3/4
=1	=1	=1	=1
*2\right	*2\right	*	*2\right
!LO:TX:t=P:problem:4\, 8\, 16\middle or right:global	!LO:TX:t=P:problem:2\right:global	!	!LO:TX:a:B:t=Allegro.
4FF/ 4F	8c/L	f	2.ryy
.	16f/L	.	.
.	16a/JJ	.	.
4F\ 4A 4c	8.cc\L	.	.
.	16cc\Jk	.	.
4F\ 4G#X 4Bn 4d	8.dd^<\L	.	.
.	16bn\Jk	.	.
=2	=2	=2	=2
4FF/ 4F	16cc/LL	.	2.ryy
.	16a/	.	.
.	16f/	.	.
.	16a/JJ	.	.
4F\ 4A 4c	8.cc/L	.	.
.	16cc/Jk	.	.
4F\ 4A 4c	8.a/L	.	.
.	16f/Jk	.	.
=3	=3	=3	=3
4CC/ 4C	16g/LL	.	2.ryy
.	16e/	.	.
.	16c/	.	.
.	16e/JJ	.	.
4C\ 4E 4B-	8.g/L	.	.
.	16f#X/Jk	.	.
4C\ 4E 4B-	8.g/L	.	.
.	16a/Jk	.	.
!!LO:LB:g=original
=4	=4	=4	=4
4FF/ 4F	8f/L	.	2.ryy
.	16a/L	.	.
.	16cc/JJ	.	.
4F\ 4A 4c	4ff\	.	.
4D\ 4F 4G	4bnt\	.	.
.	(<16qqa/LL	.	.
.	16qqb/JJ)	.	.
=5	=5	=5	=5
(8C\L 8E	8cc\	.	2.ryy
8G\	[4g/	.	.
8C\ 8E	.	.	.
8G\J)	16g/LL]	.	.
.	16ee/JJ	.	.
(8C\L 8D 8F	8.dd\L	.	.
8G\J)	.	.	.
.	16bn\Jk	.	.
=6	=6	=6	=6
*rep	*	*	*
(8C\L 8E	(16cc\LL	.	2.ryy
.	16g\	.	.
8G\	16cc\	.	.
.	16ee\JJ	.	.
8C\ 8E	8.aa\L)	.	.
8G\J)	.	.	.
.	16gg|\Jk	.	.
(8C\L 8D 8F	(16ff#X\LL	.	.
.	16gg\)	.	.
8G\J)	16ffn'\	.	.
.	16dd'\JJ	.	.
*Xrep	*	*	*
=7	=7	=7	=7
*rep	*	*	*
(8C\L 8E	8cc\	.	2.ryy
8G\	[4g/	.	.
8C\ 8E	.	.	.
8G\J)	16g/LL]	.	.
.	16ee/JJ	.	.
.	8qee/	.	.
(8C\L 8D 8F	8.dd\L	.	.
8G\J)	.	.	.
.	16bn\Jk	.	.
*Xrep	*	*	*
!!LO:LB:g=original
=8	=8	=8	=8
4C/ 4E	4cc\	.	2.ryy
!	!LO:TX:b:i:t=V&colon; S&colon;	!	!
2EE/ 2E	2c/ 2g 2b-X	.	.
!!LO:PB:g=original
=9||	=9||	=9||	=9||
4FF/ 4F	4r	p	8.a/
.	.	.	16b-/
4r	4A/ 4c 4f	.	4cc\
4r	4G#X^>/ 4Bn 4d 4f	.	4dd\
=10	=10	=10	=10
4FF/ 4F	4r	.	8.cc\
.	.	.	16f/
4r	4A/ 4c 4f	.	2a/
4r	4A/ 4c 4f	.	.
=11	=11	=11	=11
4CC/ 4C	4r	.	8.b-/
.	.	.	16a/
4r	4G/ 4B- 4c 4e	.	4g/
4r	4G/ 4B- 4c 4e	.	4c/ 4cc
=12	=12	=12	=12
4FF/ 4F	4r	.	8.a/
.	.	.	16cc\
4r	4A/ 4c 4f	.	2f/
4r	4A/ 4c 4f	.	.
!!LO:LB:g=original
=13	=13	=13	=13
4FF/ 4F	8.a\L 8.aa	.	2.r
.	16b-\Jk 16bb-	.	.
4F\ 4A 4c	4cc\ 4ccc	.	.
4F\ 4G#X 4Bn 4d	4dd\ 4ddd	.	.
=14	=14	=14	=14
4FF/ 4F	16cc/LL	.	2.r
.	16a/	.	.
.	16f/	.	.
.	16a/JJ	.	.
4F\ 4A 4c	16cc\LL	.	.
.	16a\	.	.
.	16cc\	.	.
.	16ff\JJ	.	.
4F\ 4A 4c	4cc\	.	.
=15	=15	=15	=15
4CC/ 4C	4r	p	8.b-/
.	.	.	16a/
4r	4G/ 4B- 4c 4e	.	4g/
4r	4G/ 4B- 4c 4e	.	4c/ 4cc
=16	=16	=16	=16
4FF/ 4F	4r	.	8.a/
.	.	.	16cc\
4r	4A/ 4c 4f	.	2f/
4r	4A/ 4c 4f	.	.
!!LO:LB:g=original
=17	=17	=17	=17
4CC/ 4C	4r	.	8.f#X/
.	.	.	16g/
4r	4G/ 4c 4e	.	4ee\
4r	4G/ 4c 4e	.	4cc\
=18	=18	=18	=18
4FF/ 4F	4r	.	8.bn\
.	.	.	16a\
4r	4A/ 4d 4f	.	2dd\
4r	4A/ 4d 4f	.	.
=19	=19	=19	=19
*	*	*	*^
4GG/ 4G	4r	.	8.bn\	4rcyy
.	.	.	16dd\	.
4r	4G/ 4d 4f	.	4gg/	4g\
4r	4G/ 4d 4f	.	4b/	4b\
*	*	*	*v	*v
=20	=20	=20	=20
.	.	.	8qdd/
4CC/ 4C	4r	.	8.cc\
.	.	.	16bn\
4r	4G/ 4c 4e	.	2cc\
4r	4G/ 4c 4e	.	.
!!LO:LB:g=original
=21	=21	=21	=21
4CC/ 4C	8.f#X\L 8.ff#X	.	2.r
.	16g\Jk 16gg	.	.
4G\ 4c 4e	4ee\ 4eee	.	.
4G\ 4c 4e	4cc\ 4ccc	.	.
=22	=22	=22	=22
4FF/ 4F	8a\L	.	2.r
.	16bn'\L	.	.
.	16cc'\JJ	.	.
4F\ 4A 4d	16dd'\LL	.	.
.	16ee'\	.	.
.	16ff'\	.	.
.	16gg'\JJ	.	.
4F\ 4A 4d	4aa'\	.	.
=23	=23	=23	=23
4GGG/ 4GG	4r	.	8.bn\
.	.	.	16dd\
4r	4G/ 4d 4f	.	4g\ 4gg
4r	4G/ 4d 4f	.	4b\
=24	=24	=24	=24
.	.	.	8qdd/
4CC/ 4C	4r	.	8.cc\
.	.	.	16bn\
4r	4G/ 4c 4e	.	2cc\
4r	4G/ 4c 4e	.	.
!!LO:PB:g=original
=25	=25	=25	=25
4CC/ 4C	4r	.	8.b-/
.	.	.	16a/
4r	8G/ 8B- 8c 8e	.	4g/
.	24c'/LL	.	.
.	24e'/	.	.
.	24g'/JJ	.	.
4r	4cc\	.	4c/
=26	=26	=26	=26
4CC/ 4C	4r	.	8.a/
.	.	.	16g/
4r	8A/ 8c 8f	.	2f/
.	24c'/LL	.	.
.	24f'/	.	.
.	24a'/JJ	.	.
4r	4cc\	.	.
=27	=27	=27	=27
4CC/ 4C	4r	.	8.e/
.	.	.	16g/
4r	4G/ 4B- 4c 4e	.	4cc\
4r	4G/ 4B- 4c 4e	.	4b-\
=28	=28	=28	=28
4FF/ 4F	4r	.	8.a/
.	.	.	16cc\
4r	4A/ 4c 4f	.	2f/
4r	4A/ 4c 4f	.	.
!!LO:LB:g=original
=29	=29	=29	=29
4FF/ 4F	8.f/L 8.a	f	8.f/ 8.a
.	16g/Jk 16b-	.	16g/ 16b-
4F\ 4A 4c	4a\ 4cc	.	4a\ 4cc
4F\ 4G#X 4Bn 4d	4bn\ 4dd	.	4bn\ 4dd
=30	=30	=30	=30
4FF/ 4F	8.a/L 8.cc	.	8.a\ 8.cc
.	16c/Jk 16f	.	16c/ 16f
4F\ 4A 4c	8f/ 8a	.	2f/ 2a
!	!LO:TUP:a	!	!
.	24ff'\LL	.	.
.	24cc'\	.	.
.	24a'\JJ	.	.
4F\ 4A 4c	4f/	.	.
=31	=31	=31	=31
4BB-\ 4D-X 4F 4G	8.g\L 8.gg	.	8.g/
.	16dd-X\Jk 16ddd-X	.	16dd-X\
4C\ 4F 4A	4cc\ 4ccc	.	4cc\
4C\ 4F 4A	4a\ 4aa	.	4a/
=32	=32	=32	=32
4C\ 4E 4B-	8.g\L 8.gg	.	8.g/
.	16a\Jk 16aa	.	16a/
2F\ 2A	2f/ 2ff	.	2f/
!!LO:LB:g=original
=33	=33	=33	=33
4FF/ 4F	(16cc/LL	.	2.r
.	16a/)	.	.
.	16f'/	.	.
.	16a'/JJ	.	.
4F\ 4A 4c	[2cc\	.	.
4F\ 4A 4c	.	.	.
=34	=34	=34	=34
*rep	*	*	*
4FF/ 4F	16cc\LL]	.	2.r
.	16a'\	.	.
.	16cc'\	.	.
.	16ff'\JJ	.	.
4F\ 4A 4c	2cc\	.	.
4F\ 4A 4c	.	.	.
*Xrep	*	*	*
=35	=35	=35	=35
*^	*	*	*
4rG	2.C\	(16bn\LL	.	2.r
.	.	16cc\	.	.
.	.	16cc#X\	.	.
.	.	16dd\JJ	.	.
4G/ 4B- 4c	.	16dd#X\LL	.	.
.	.	16ee\	.	.
.	.	16ff\	.	.
.	.	16ff#X\JJ	.	.
4G/ 4B- 4c	.	8.gg\L)	.	.
.	.	16ee|\Jk	.	.
=36	=36	=36	=36	=36
4rd	2.F\	16ff\LL	.	2.r
.	.	16aa\	.	.
.	.	16ff\	.	.
.	.	16cc\JJ	.	.
4A/ 4c	.	16a\LL	.	.
.	.	16ff\	.	.
.	.	16cc\	.	.
.	.	16a\JJ	.	.
4A/ 4c	.	4f/	.	.
!!LO:LB:g=original
=37	=37	=37	=37	=37
(4BB-/	[4BB-\	8d'/L	.	2.r
.	.	16f'/L	.	.
.	.	16b-'/JJ	.	.
4D/) 4F 4B-	8BB-\]	8dd'\	.	.
.	8rA	(8b-\L 8dd	.	.
4rcyy	4rA	8cc\ 8ee	.	.
.	.	8dd\J) 8ff	.	.
=38	=38	=38	=38	=38
4C/	[4C\	8c'/L	.	2.r
.	.	16f'/L	.	.
.	.	16a'/JJ	.	.
4F/ 4A 4c	8C\]	8cc'\	.	.
.	8rA	(8a/L 8cc	.	.
4rcyy	4rA	8g/ 8b-	.	.
.	.	8f/J) 8a	.	.
=39	=39	=39	=39	=39
4C/	[4C\	8c/L	.	2.r
.	.	16e/L	.	.
.	.	16g/JJ	.	.
8E/ 8G 8c	8C\]	8cc\	.	.
!	!	!LO:TX:a:i:t=ritard.	!	!
8C'\L 8c	8rEEyy	8e'^>/L 8g 8cc	ff	.
8C'\ 8c	4rEEyy	8f'^>/ 8a-X 8bn 8dd	.	.
8C'\J 8c	.	8g'^>/J 8b-X 8ee	.	.
*v	*v	*	*	*
=40	=40	=40	=40
4FF/ 4F	4f/ 4a 4ff	.	2.r
4r	4r	.	.
4r	4r	.	.
==	==	==	==
*-	*-	*-	*-
!!!system-decoration: s1{(s2,s3)}
!!!ENC: Mateusz Solarz
!!!END: 2021-05-20
!!!RDF**kern: > = above
!!!RDF**kern: < = below
!!!RDF**kern: | = vertical stroke
